X: 13
T: Sporting Paddy
Z: Aberfoyle Whistler
S: https://thesession.org/tunes/430#setting48267
R: reel
M: 4/4
L: 1/8
K: Ador
E ~A3 GABG|EAAB G2 ED|E ~A3 GAB/c/d|edge dBAG|
~E3 A GABG|EAAB G2 ED|E ~A3 GAB/c/d|edge d2ef||
g ~e3 gede|g ~e3 a2 ba|g ~e3 gedB|efge d2 ef|
g ~e3 gede|g ~e3 a2 ga|b/a/gab aged|efge dBAG||

